other/cardboardmuseum.svg

<?xml version="1.0" encoding="UTF-8" standalone="no"?>
<!-- Created with Inkscape (http://www.inkscape.org/) -->

<svg
   width="48"
   height="48"
   viewBox="0 0 48 48"
   version="1.1"
   id="svg5"
   inkscape:version="1.1.1 (3bf5ae0d25, 2021-09-20, custom)"
   sodipodi:docname="cardboardmuseum.svg"
   xmlns:inkscape="http://www.inkscape.org/namespaces/inkscape"
   xmlns:sodipodi="http://sodipodi.sourceforge.net/DTD/sodipodi-0.dtd"
   xmlns="http://www.w3.org/2000/svg"
   xmlns:svg="http://www.w3.org/2000/svg">
  <sodipodi:namedview
     id="namedview7"
     pagecolor="#505050"
     bordercolor="#eeeeee"
     borderopacity="1"
     inkscape:pageshadow="0"
     inkscape:pageopacity="0"
     inkscape:pagecheckerboard="0"
     inkscape:document-units="px"
     showgrid="false"
     units="px"
     showguides="true"
     inkscape:guide-bbox="true"
     inkscape:zoom="14.666667"
     inkscape:cx="15.715909"
     inkscape:cy="18.443182"
     inkscape:window-width="1874"
     inkscape:window-height="1015"
     inkscape:window-x="20"
     inkscape:window-y="39"
     inkscape:window-maximized="1"
     inkscape:current-layer="layer1"
     inkscape:object-paths="true" />
  <defs
     id="defs2" />
  <g
     inkscape:label="Layer 1"
     inkscape:groupmode="layer"
     id="layer1">
    <path
       style="fill:none;stroke:#ffffff;stroke-width:1;stroke-linecap:round;stroke-linejoin:round;stroke-opacity:1;stroke-miterlimit:4;stroke-dasharray:none"
       d="m 5.4999998,37.998304 7e-7,-27.996616"
       id="path1735"
       sodipodi:nodetypes="cc" />
    <path
       style="fill:none;stroke:#ffffff;stroke-width:1;stroke-linecap:round;stroke-linejoin:round;stroke-opacity:1;stroke-miterlimit:4;stroke-dasharray:none"
       d="m 11.666667,6.4402575 6.166667,3.5614305 -6.166667,3.561431 -6.1666665,-3.561431 z"
       id="path1739"
       sodipodi:nodetypes="ccccc" />
    <path
       style="fill:none;stroke:#ffffff;stroke-width:1;stroke-linecap:round;stroke-linejoin:round;stroke-opacity:1;stroke-miterlimit:4;stroke-dasharray:none"
       d="M 17.833332,27.691538 11.666665,24.130107"
       id="path1743-3" />
    <path
       style="fill:none;stroke:#ffffff;stroke-width:1;stroke-linecap:round;stroke-linejoin:round;stroke-opacity:1;stroke-miterlimit:4;stroke-dasharray:none"
       d="m 11.666666,20.685983 1e-6,-7.122864"
       id="path2673" />
    <path
       style="fill:none;stroke:#ffffff;stroke-width:1;stroke-linecap:round;stroke-linejoin:round;stroke-opacity:1;stroke-miterlimit:4;stroke-dasharray:none"
       d="M 17.833334,13.445813 24,17.007244 17.833334,20.568675 11.666667,17.007244 Z"
       id="path2837"
       sodipodi:nodetypes="ccccc" />
    <path
       style="fill:none;stroke:#ffffff;stroke-width:1;stroke-linecap:round;stroke-linejoin:round;stroke-opacity:1;stroke-miterlimit:4;stroke-dasharray:none"
       d="m 23.999999,20.620709 6.166666,3.561431 -6.166666,3.561431 -6.166667,-3.561431 z"
       id="path2839"
       sodipodi:nodetypes="ccccc" />
    <path
       style="fill:none;stroke:#ffffff;stroke-width:1;stroke-linecap:round;stroke-linejoin:round;stroke-opacity:1;stroke-miterlimit:4;stroke-dasharray:none"
       d="m 17.833332,27.691538 2e-6,-7.122863"
       id="path2841" />
    <path
       style="fill:none;stroke:#ffffff;stroke-width:1;stroke-linecap:round;stroke-linejoin:round;stroke-opacity:1;stroke-miterlimit:4;stroke-dasharray:none"
       d="m 30.166665,31.305002 -6.166666,3.561431 -6.166667,-3.561431"
       id="path2843"
       sodipodi:nodetypes="ccc" />
    <path
       style="fill:none;stroke:#ffffff;stroke-width:1;stroke-linecap:round;stroke-linejoin:round;stroke-opacity:1;stroke-miterlimit:4;stroke-dasharray:none"
       d="M 11.666666,41.559735 V 20.685983"
       id="path2845"
       sodipodi:nodetypes="cc" />
    <path
       style="fill:none;stroke:#ffffff;stroke-width:1;stroke-linecap:round;stroke-linejoin:round;stroke-opacity:1;stroke-miterlimit:4;stroke-dasharray:none"
       d="m 17.833332,31.305002 2e-6,-7.122864"
       id="path2847" />
    <path
       style="fill:none;stroke:#ffffff;stroke-width:1;stroke-linecap:round;stroke-linejoin:round;stroke-opacity:1;stroke-miterlimit:4;stroke-dasharray:none"
       d="m 30.166665,31.305002 1e-6,-7.122864"
       id="path2849" />
    <path
       style="fill:none;stroke:#ffffff;stroke-width:1;stroke-linecap:round;stroke-linejoin:round;stroke-opacity:1;stroke-miterlimit:4;stroke-dasharray:none"
       d="M 17.833332,37.998304 11.666666,41.559735 5.4999998,37.998304"
       id="path3064"
       sodipodi:nodetypes="ccc" />
    <path
       style="fill:none;stroke:#ffffff;stroke-width:1;stroke-linecap:round;stroke-linejoin:round;stroke-opacity:1;stroke-miterlimit:4;stroke-dasharray:none"
       d="m 17.833332,37.998304 2e-6,-7.122863"
       id="path3216" />
    <path
       style="fill:none;stroke:#ffffff;stroke-width:1;stroke-linecap:round;stroke-linejoin:round;stroke-opacity:1;stroke-miterlimit:4;stroke-dasharray:none"
       d="M 23.999999,34.866433 V 27.743571"
       id="path3398" />
    <path
       style="fill:none;stroke:#ffffff;stroke-width:1;stroke-linecap:round;stroke-linejoin:round;stroke-opacity:1;stroke-miterlimit:4;stroke-dasharray:none"
       d="M 23.999999,20.620709 24,17.007244"
       id="path3924" />
    <path
       style="fill:none;stroke:#ffffff;stroke-width:1;stroke-linecap:butt;stroke-linejoin:miter;stroke-opacity:1;stroke-miterlimit:4;stroke-dasharray:none"
       d="m 17.833334,10.001688 v 3.444125"
       id="path4093" />
    <path
       style="fill:none;stroke:#ffffff;stroke-width:1;stroke-linecap:round;stroke-linejoin:round;stroke-opacity:1;stroke-miterlimit:4;stroke-dasharray:none"
       d="M 42.5,37.998304 V 10.001688"
       id="path4306"
       sodipodi:nodetypes="cc" />
    <path
       style="fill:none;stroke:#ffffff;stroke-width:1;stroke-linecap:round;stroke-linejoin:round;stroke-opacity:1;stroke-miterlimit:4;stroke-dasharray:none"
       d="M 36.333333,6.4402575 30.166666,10.001688 36.333333,13.563119 42.5,10.001688 Z"
       id="path4308"
       sodipodi:nodetypes="ccccc" />
    <path
       style="fill:none;stroke:#ffffff;stroke-width:1;stroke-linecap:round;stroke-linejoin:round;stroke-opacity:1;stroke-miterlimit:4;stroke-dasharray:none"
       d="m 30.166668,27.691538 6.166667,-3.561431"
       id="path4310" />
    <path
       style="fill:none;stroke:#ffffff;stroke-width:1;stroke-linecap:round;stroke-linejoin:round;stroke-opacity:1;stroke-miterlimit:4;stroke-dasharray:none"
       d="m 36.333334,20.685983 -10e-7,-7.122864"
       id="path4312" />
    <path
       style="fill:none;stroke:#ffffff;stroke-width:1;stroke-linecap:round;stroke-linejoin:round;stroke-opacity:1;stroke-miterlimit:4;stroke-dasharray:none"
       d="M 30.166666,13.445813 24,17.007244 l 6.166666,3.561431 6.166667,-3.561431 z"
       id="path4314"
       sodipodi:nodetypes="ccccc" />
    <path
       style="fill:none;stroke:#ffffff;stroke-width:1;stroke-linecap:round;stroke-linejoin:round;stroke-opacity:1;stroke-miterlimit:4;stroke-dasharray:none"
       d="m 30.166668,27.691538 -2e-6,-7.122863"
       id="path4318" />
    <path
       style="fill:none;stroke:#ffffff;stroke-width:1;stroke-linecap:round;stroke-linejoin:round;stroke-opacity:1;stroke-miterlimit:4;stroke-dasharray:none"
       d="M 36.333334,41.559735 V 20.685983"
       id="path4322"
       sodipodi:nodetypes="cc" />
    <path
       style="fill:none;stroke:#ffffff;stroke-width:1;stroke-linecap:round;stroke-linejoin:round;stroke-opacity:1;stroke-miterlimit:4;stroke-dasharray:none"
       d="m 30.166668,31.305002 -2e-6,-7.122864"
       id="path4324" />
    <path
       style="fill:none;stroke:#ffffff;stroke-width:1;stroke-linecap:round;stroke-linejoin:round;stroke-opacity:1;stroke-miterlimit:4;stroke-dasharray:none"
       d="m 17.833335,31.305002 -1e-6,-7.122864"
       id="path4326" />
    <path
       style="fill:none;stroke:#ffffff;stroke-width:1;stroke-linecap:round;stroke-linejoin:round;stroke-opacity:1;stroke-miterlimit:4;stroke-dasharray:none"
       d="M 30.166668,37.998304 36.333334,41.559735 42.5,37.998304"
       id="path4328"
       sodipodi:nodetypes="ccc" />
    <path
       style="fill:none;stroke:#ffffff;stroke-width:1;stroke-linecap:round;stroke-linejoin:round;stroke-opacity:1;stroke-miterlimit:4;stroke-dasharray:none"
       d="m 30.166668,37.998304 -2e-6,-7.122863"
       id="path4330" />
    <path
       style="fill:none;stroke:#ffffff;stroke-width:1;stroke-linecap:round;stroke-linejoin:round;stroke-opacity:1;stroke-miterlimit:4;stroke-dasharray:none"
       d="M 24.000001,20.620709 24,17.007244"
       id="path4334" />
    <path
       style="fill:none;stroke:#ffffff;stroke-width:1;stroke-linecap:butt;stroke-linejoin:miter;stroke-opacity:1;stroke-miterlimit:4;stroke-dasharray:none"
       d="m 30.166666,10.001688 v 3.444125"
       id="path4336" />
  </g>
</svg>

<svg xmlns="http://www.w3.org/2000/svg" viewBox="0 0 48 48"><defs><style>.a{fill:none;stroke:#fff;stroke-linecap:round;stroke-linejoin:round;}</style></defs><path class="a" d="M5.5,37.9983V10.0017"/><path class="a" d="M11.6667,6.44l6.1666,3.5614-6.1666,3.5614L5.5,10.0017Z"/><path class="a" d="M17.8333,27.6915,11.6667,24.13"/><path class="a" d="M11.6667,20.686V13.5631"/><path class="a" d="M17.8333,13.4458,24,17.0072l-6.1667,3.5615-6.1666-3.5615Z"/><path class="a" d="M24,20.6207l6.1667,3.5614L24,27.7436l-6.1667-3.5615Z"/><path class="a" d="M17.8333,27.6915V20.5687"/><path class="a" d="M30.1667,31.305,24,34.8664,17.8333,31.305"/><path class="a" d="M11.6667,41.56V20.686"/><path class="a" d="M17.8333,31.305V24.1821"/><path class="a" d="M30.1667,31.305V24.1821"/><path class="a" d="M17.8333,37.9983,11.6667,41.56,5.5,37.9983"/><path class="a" d="M17.8333,37.9983V30.8754"/><path class="a" d="M24,34.8664V27.7436"/><path class="a" d="M24,20.6207V17.0072"/><path class="a" d="M17.8333,10.0017v3.4441"/><path class="a" d="M42.5,37.9983V10.0017"/><path class="a" d="M36.3333,6.44l-6.1666,3.5614,6.1666,3.5614L42.5,10.0017Z"/><path class="a" d="M30.1667,27.6915,36.3333,24.13"/><path class="a" d="M36.3333,20.686V13.5631"/><path class="a" d="M30.1667,13.4458,24,17.0072l6.1667,3.5615,6.1666-3.5615Z"/><path class="a" d="M30.1667,27.6915V20.5687"/><path class="a" d="M36.3333,41.56V20.686"/><path class="a" d="M30.1667,31.305V24.1821"/><path class="a" d="M17.8333,31.305V24.1821"/><path class="a" d="M30.1667,37.9983,36.3333,41.56,42.5,37.9983"/><path class="a" d="M30.1667,37.9983V30.8754"/><path class="a" d="M24,20.6207V17.0072"/><path class="a" d="M30.1667,10.0017v3.4441"/></svg>
